64x64/apps/riot-web.svg

<svg height="64" width="64" xmlns="http://www.w3.org/2000/svg"><path d="m17.5 4c.128 5.684-2.816 8.5-8.5 8.5v39.852a8.527 8.527 0 1 0 17.053 0v-7.352h7.343c11.38 0 20.604-9.12 20.604-20.5s-9.224-20.463-20.604-20.463zm8.5 16h7.154c2.857 0 4.846 2.052 4.846 5s-1.99 5-4.846 5h-7.154z" opacity=".2"/><path d="m17.5 3c.128 5.684-2.816 8.5-8.5 8.5v39.852a8.527 8.527 0 1 0 17.053 0v-7.352h7.343c11.38 0 20.604-9.12 20.604-20.5s-9.224-20.463-20.604-20.463zm8.5 16h7.154c2.857 0 4.846 2.052 4.846 5s-1.99 5-4.846 5h-7.154z" fill="#a2ddef"/><path d="m17.5 3c.128 5.684-2.816 8.5-8.5 8.5v1c5.684 0 8.628-2.816 8.5-8.5l15.896.037c11.212 0 20.324 8.819 20.59 19.963.004-.167.014-.332.014-.5 0-11.38-9.224-20.463-20.604-20.463zm20.457 21.5c-.217 2.67-2.115 4.5-4.803 4.5h-7.154v1h7.154c2.857 0 4.846-2.052 4.846-5 0-.174-.03-.333-.043-.5z" fill="#f4f4f7" opacity=".2"/><path d="m17.487 10a1.414 1.414 0 0 0 -1.387 1.437v41.125c-.027 1.917 2.845 1.917 2.818 0v-15.6h14.796c7.393 0 13.386-6.03 13.386-13.47 0-7.441-5.993-13.473-13.386-13.473h-15.987a1.4 1.4 0 0 0 -.24-.019zm1.431 2.856h14.796c5.87 0 10.568 4.728 10.568 10.635 0 5.908-4.698 10.636-10.568 10.636h-14.796z" fill="#001851" opacity=".3"/><path d="m24.46 7.623a8.452 8.452 0 0 1 1.409 6.354 8.449 8.449 0 0 1 -3.495 5.488c-3.838 2.69-9.148 1.753-11.835-2.087a8.45 8.45 0 0 1 -1.408-6.354" fill-rule="evenodd" opacity=".1"/><path d="m24.46 6.623a8.452 8.452 0 0 1 1.409 6.353 8.449 8.449 0 0 1 -3.495 5.489c-3.838 2.69-9.148 1.753-11.835-2.088a8.45 8.45 0 0 1 -1.408-6.354" fill="#368bd6" fill-rule="evenodd"/><path d="m35.412 29.905a8.5 8.5 0 0 0 -6.676 13.47l9.801 14a8.5 8.5 0 1 0 13.926-9.75l-9.799-14a8.5 8.5 0 0 0 -7.252-3.72z" opacity=".1"/><path d="m45.5 51.5-9.8-14" fill="none" stroke="#368bd6" stroke-linecap="round" stroke-width="17"/></svg>

<svg xmlns="http://www.w3.org/2000/svg" width="64" height="64" version="1"><path style="opacity:.2" d="M17.5 4c.128 5.684-2.816 8.5-8.5 8.5v39.852a8.527 8.527 0 1 0 17.053 0V45h7.343C44.776 45 54 35.88 54 24.5S44.776 4.037 33.396 4.037zM26 20h7.154C36.011 20 38 22.052 38 25s-1.99 5-4.846 5H26z"/><path style="fill:#a2ddef" d="M17.5 3c.128 5.684-2.816 8.5-8.5 8.5v39.852a8.527 8.527 0 1 0 17.053 0V44h7.343C44.776 44 54 34.88 54 23.5S44.776 3.037 33.396 3.037L17.5 3zM26 19h7.154C36.011 19 38 21.052 38 24s-1.99 5-4.846 5H26V19z"/><path style="opacity:.2;fill:#f4f4f7" d="M17.5 3c.128 5.684-2.816 8.5-8.5 8.5v1c5.684 0 8.628-2.816 8.5-8.5l15.896.037c11.212 0 20.324 8.819 20.59 19.963.004-.167.014-.332.014-.5 0-11.38-9.224-20.463-20.604-20.463L17.5 3zm20.457 21.5c-.217 2.67-2.115 4.5-4.803 4.5H26v1h7.154C36.011 30 38 27.948 38 25c0-.174-.03-.333-.043-.5z"/><path style="opacity:.3;fill:#001851" d="M17.487 10a1.414 1.414 0 0 0-1.387 1.437v41.125c-.027 1.917 2.845 1.917 2.818 0v-15.6h14.796c7.393 0 13.386-6.03 13.386-13.47 0-7.441-5.993-13.473-13.386-13.473H17.727a1.4 1.4 0 0 0-.24-.019zm1.431 2.856H33.714c5.87 0 10.568 4.728 10.568 10.635 0 5.908-4.698 10.636-10.568 10.636H18.918z"/><path style="opacity:.1;fill-rule:evenodd" d="M24.46 7.623a8.452 8.452 0 0 1 1.409 6.354 8.449 8.449 0 0 1-3.495 5.488c-3.838 2.69-9.148 1.753-11.835-2.087a8.45 8.45 0 0 1-1.408-6.354 8.8b9cbe 8.8b9cbe 0 0 1 3.495-5.488c3.838-2.69 9.147-1.753 11.835 2.087z"/><path style="fill:#368bd6;fill-rule:evenodd" d="M24.46 6.623a8.452 8.452 0 0 1 1.409 6.353 8.449 8.449 0 0 1-3.495 5.489c-3.838 2.69-9.148 1.753-11.835-2.088a8.45 8.45 0 0 1-1.408-6.354 8.8b9cbe 8.8b9cbe 0 0 1 3.495-5.488c3.838-2.69 9.147-1.753 11.835 2.088z"/><path style="opacity:.1" d="M35.412 29.905a8.5 8.5 0 0 0-6.676 13.47l9.801 14a8.5 8.5 0 1 0 13.926-9.75l-9.799-14a8.5 8.5 0 0 0-7.252-3.72z"/><path style="fill:none;stroke:#368bd6;stroke-width:17;stroke-linecap:round" d="m45.5 51.5-9.8-14"/></svg>
